X: 43441
T: Yanik's
R: jig
M: 6/8
K: Dmajor
|:A2D FED|FGA AFA|BGe cAd|fge fdB|
A2D FED|FGA AFA|BGe c2A|1 dg/f/e dcB:|2 dfe dag||
|:f3 dAF|FAd fda|g3 egd|c2d eag|
f3 dAF|FAd fda|g3 egd|1 cBc dag:|2 cBc dcB||

